X: 24125
T: Longford Collector, The
R: reel
M: 4/4
K: Gmajor
|:~G3 A Bddg|eB ~B2 eBdB|~G3 A BddB|AcBA GEDE|
~G3 A Bddg|eB ~B2 d2 ef|gfga gedB||1 AcBA GEDE:|2 AcBA GE D2||
|:~g3 a gedg|eB ~B2 d2 ef|gfga gedB|AcBA GEDE|
~g3 a gedg|eB ~B2 d2 ef|gbaf gedB|AcBA GE D2:|

